X:1
T:Title
%%score ( 1 2 ) ( 3 4 )
L:1/8
Q:1/4=80
M:4/4
K:C
V:1 bass nm="Grand Piano, Soprano"
V:2 bass 
V:3 bass nm="Choir Pad, Thou Art My Way"
V:4 bass 
V:1
 z2[K:treble] z G- G3/2 z/ z2 | z2 z G- G4 | z2 z F- F3/2 z/ z2 | z2 z[K:bass] E- E4 | %4
 z2[K:treble] z G- G3/2 z/ z2 | z2 z G- G4 | z2 z B- B3/2 z/ z2 | z2 z d- d4 | %8
 GGG[Ge]- [Ge]3/2 z/ [Gd][Gc] | [EG][_E^F][=EG][=FA]- [FA]4 | %10
 [FA][GA][GA][Af]- [Af]3/2 z/ [Ae][Ad] | A[Ad][Ac][GB]- [GB]4 | GGG[Ge]- [Ge]3/2 z/ [Gc][Gc] | %13
 [Gc][Gd][Ge][Ff]- [Ff]4 | [Ac][GB][FA][EG] z4 | [Ge][Fd]- [Fd]/[Ec]/[Ec]- [Ec]4- | [Ec]2 z2 z4 |] %17
V:2
 [G,CE][E,G,C][K:treble][G,CE][CE] [CE][CE][CEG][CFA] | [CFA][CGB][FAc][CE] [CE][CE][CE][CE] | %2
 [B,DE^G][^CEA][A,CE][A,D] [A,D][A,D][=CFA][B,DF=G] | %3
 [G,B,D][G,B,E][G,B,F][K:bass][G,C] [G,C][G,C][G,C][G,C] | %4
 [G,CE][E,G,C][K:treble][G,CE][CE] [CE][CE][EAc][_EFB] | %5
 [B,_EFA][B,EG][B,E^F][B,=E] [B,E][B,E][B,E][B,E] | [A,^CG][A,C^F][A,CG][DG] [DG][DG][DGB][DFc] | %7
 [CD^FA][B,D=F^G][CD^FA][=F=GB] [FB][FB][FA][FG] | x8 | x8 | x8 | x8 | x8 | x8 | x8 | x8 | x8 |] %17
V:3
 E,C,E,G,- G,3/2 z/ G,A, | A,B,CG,- G,4 | ^G,A,E,F,- F,3/2 z/ A,=G, | D,E,F,E,- E,4 | %4
 E,C,E,G,- G,3/2 z/ CB, | A,G,^F,G,- G,4 | G,^F,G,B,- B,3/2 z/ B,C | z2 z[K:treble] D- D4 | %8
 G,[K:bass]G,G,[C,C]- [C,C]3/2 z/ [D,B,][E,C] | [C,C][C,C][C,C][F,C]- [F,C]4 | %10
 [F,C][E,^C][E,C]D,- D,3/2 z/ [E,C][F,D] | [F,D][^F,D][D,D][G,D]- [G,D]4 | %12
 G,G,G,[C,C]- [C,C]3/2 z/[K:treble] [CE][CE] | [CE][B,D][_B,=B,][A,C]- [A,C]4 | %14
 z4[K:bass] G,E,C,[G,,G,] | [G,C][G,B,]- [G,B,]/[C,C]/[C,G,]- [C,G,]4- | [C,G,]2 z2 z4 |] %17
V:4
 x8 | x8 | x8 | x8 | x8 | x8 | x8 | A,^G, .A,2[K:treble] z2 CB, | x[K:bass] x7 | x8 | x8 | x8 | %12
 x6[K:treble] x2 | x8 | x4[K:bass] x4 | x8 | x8 |] %17

